icons/linear-ele-symbol-arrow-download.svg

<svg xmlns="http://www.w3.org/2000/svg" width="32px" height="32px" viewBox="0 0 32 32" version="1.1">
    <title>linear-ele-symbol-arrow-download</title>
    <g id="linear-ele-symbol-arrow-download" stroke-width="1" fill-rule="evenodd">
        <path d="M16,4 C16.5522847,4 17,4.44771525 17,5 L17,17.585 L24.2928932,10.2928932 C24.6533772,9.93240926 25.2206082,9.90467972 25.6128994,10.2097046 L25.7071068,10.2928932 C26.0976311,10.6834175 26.0976311,11.3165825 25.7071068,11.7071068 L16.7071068,20.7071068 C16.6717127,20.7425008 16.6343256,20.774687 16.5953066,20.8036654 L16.4840621,20.8753288 L16.371336,20.9287745 L16.265993,20.9641549 L16.1174742,20.9931658 L16,21 L15.9247615,20.9972121 L15.7992742,20.9797599 L15.6878575,20.9502619 L15.5767785,20.9063266 L15.4792912,20.8540045 L15.3829777,20.7870723 L15.2928932,20.7071068 L6.29289322,11.7071068 C5.90236893,11.3165825 5.90236893,10.6834175 6.29289322,10.2928932 C6.68341751,9.90236893 7.31658249,9.90236893 7.70710678,10.2928932 L15,17.585 L15,5 C15,4.44771525 15.4477153,4 16,4 Z M27,26 C27.5522847,26 28,26.4477153 28,27 C28,27.5522847 27.5522847,28 27,28 L5,28 C4.44771525,28 4,27.5522847 4,27 C4,26.4477153 4.44771525,26 5,26 L27,26 Z" id="&#24418;&#29366;" fill-rule="nonzero" />
    </g>
</svg>

<svg xmlns="http://www.w3.org/2000/svg" viewBox="0 0 32 32"><path fill="currentColor" d="M16 4a1 1 0 0 1 1 1v12.585l7.293-7.292a1 1 0 0 1 1.32-.083l.094.083a1 1 0 0 1 0 1.414l-9 9a1.008 1.008 0 0 1-.112.097l-.11.071-.114.054-.105.035-.149.03L16 21l-.075-.003-.126-.017-.111-.03-.111-.044-.098-.052-.096-.067-.09-.08-9-9a1 1 0 0 1 1.414-1.414L15 17.585V5a1 1 0 0 1 1-1m11 22a1 1 0 0 1 0 2H5a1 1 0 0 1 0-2z"/></svg>
